X:1
T:O love divine, how sweet thou art
T:O love divine, how sweet thou art - Redeeming Love (John Fawcett)
C:John Fawcett
Z:p23, A New Set of
Z:Sacred Music,
Z:London: [c1811]
%%score [ 1 2 3 4 ]
L:1/8
M:2/2
K:C
V:1 treble nm="SOPRANO" snm="S."
V:2 treble nm="ALTO" snm="A."
V:3 treble-8 transpose=-12 nm="TENOR" snm="T."
V:4 bass nm="BASS" snm="B."
V:1
 z4 A4 | (c3 B A2) A2 | ^G4 A4 | (d2 c2) B4 | A8 | z4 G4 | G4 B4 | (cded c2) A2 | G4 G4 | G8 | %10
w: O|that _ _ I|could for|ev- * er|sit|With|Ma- ry|at _ _ _ _ the|Mas- ter’s|feet!|
w: O|love _ _ di-|vine, how|sweet _ thou|art!|When|shall I|find _ _ _ _ my|will- ing|heart|
w: Strong-|er _ _ his|love than|death _ or|hell;|Its|rich- es|are _ _ _ _ un-|search- a-|ble:|
 z4 B4 | (c4 d2) d2 | B4 (c2 BA) | ^G8 | ^G4 G2 G2 | A4 z2 c2 | A4 A4 | B8 | c4 d2 c2 | c4 c4 | %20
w: Be|this _ my|hap- py _ _|choice,|My on- ly|care, de-|light and|bliss,|My joy, my|heav’n on|
w: All|ta- * ken|up by _ _|thee?|I thirst, I|long, and|pant to|prove|The great- ness|of re-|
w: The|first- * born|sons of _ _|light|De- sire in|vain its|depth to|see;|They can- not|reach the|
 B6 A2 | ^G6!p! G2 | A4 B4 | (c3 B c2) d2 | e6!f! B2 | (e2 d2 c2) c2 | (B2 A2) ^G4 | A8 |] %28
w: earth be|this, To|hear the|Bride- * * groom’s|voice, to|hear _ _ the|Bride- * groom’s|voice.|
w: deem- ing|love, The|love of|Christ _ _ to|me, the|love _ _ of|Christ _ to|me.|
w: mys- te-|ry, The|length, and|breadth, _ _ and|height, the|length, _ _ and|breadth, _ and|height.|
V:2
 z4 E4 | E6 F2 | E4 E4 | F4 E4 | E8 | z4 E4 | E4 G4 | G6 F2 | E4 D4 | E8 | z4 G4 | (E4 F2) D2 | %12
w: O|that I|could for|ev- er|sit|With|Ma- ry|at the|Mas- ter’s|feet!|Be|this _ my|
w: O|love di-|vine, how|sweet thou|art!|When|shall I|find my|will- ing|heart|All|ta- * ken|
w: Strong-|er his|love than|death or|hell;|Its|rich- es|are un-|search- a-|ble:|The|first- * born|
 E4 E4 | E8 | E4 E2 E2 | E4 z2 E2 | A4 A4 | ^G8 | G4 G2 G2 | A4 A4 | F6 F2 | E6 z2 | z8 | z8 | %24
w: hap- py|choice,|My on- ly|care, de-|light and|bliss,|My joy, my|heav’n on|earth be|this,|||
w: up by|thee?|I thirst, I|long, and|pant to|prove|The great- ness|of re-|deem- ing|love,|||
w: sons of|light|De- sire in|vain its|depth to|see;|They can- not|reach the|mys- te-|ry,|||
 z4 z2 E2 | (E2 F2 G2) E2 | F4 E4 | E8 |] %28
w: To|hear _ _ the|Bride- groom’s|voice.|
w: The|love _ _ of|Christ to|me.|
w: The|length, _ _ and|breadth, and|height.|
V:3
 z4 E4 | (A3 B c2) (d>c) | B4 e4 | A4 ^G4 | A8 | z4 B4 | c4 d4 | (e2 g2 e2) d2 | c4 B4 | c8 | %10
w: O|that _ _ I _|could for|ev- er|sit|With|Ma- ry|at _ _ the|Mas- ter’s|feet!|
w: O|love _ _ di- *|vine, how|sweet thou|art!|When|shall I|find _ _ my|will- ing|heart|
w: Strong-|er _ _ his _|love than|death or|hell;|Its|rich- es|are _ _ un-|search- a-|ble:|
 z4 d4 | (e2 c2 B2) A2 | ^G4 (A2 Bc) | B8 | B4 B2 B2 | c4 z2 c2 | d4 (d3 e/f/) | e8 | e4 g2 (e>d) | %19
w: Be|this _ _ my|hap- py _ _|choice,|My on- ly|care, de-|light and _ _|bliss,|My joy, my _|
w: All|ta- * * ken|up by _ _|thee?|I thirst, I|long, and|pant to _ _|prove|The great- ness _|
w: The|first- * * born|sons of _ _|light|De- sire in|vain its|depth to _ _|see;|They can- not _|
 c4 A4 | (d3 e d2) c2 | B6 z2 | z8 | z8 | z4 z2 e2 | (g2 B2 c2) e2 | (d2 c2) B4 | A8 |] %28
w: heav’n on|earth _ _ be|this,|||To|hear _ _ the|Bride- * groom’s|voice.|
w: of re-|deem- * * ing|love,|||The|love _ _ of|Christ _ to|me.|
w: reach the|mys- * * te-|ry,|||The|length, _ _ and|breadth, _ and|height.|
V:4
 z4 A,,4 | A,6 D,2 |"^#" E,4"^6" C,4 | D,4"^#" E,4 | A,,8 | z4"^§" E,4 | C,4 G,4 | %7
w: O|that I|could for|ev- er|sit|With|Ma- ry|
w: O|love di-|vine, how|sweet thou|art!|When|shall I|
w: Strong-|er his|love than|death or|hell;|Its|rich- es|
"^Emendations: The alto clef is printed in the source in the treble clef, an octave above sounding pitch. The first verse onlyof the text is underlaid in the source: three subsequent verses have been added editorially. The tenor E and F on beat 2of bar 17 are printed as small semiquaver grace notes in the source, but have been written out fully in the present edition." C6"^6" F,2 | %8
w: at the|
w: find my|
w: are un-|
"^64" G,4"^53" G,,4 | C,8 | z4 G,4 | (C,2 E,2"^6" D,2) F,2 |"^#" E,4 A,4 |"^#" E,8 | %14
w: Mas- ter’s|feet!|Be|this _ _ my|hap- py|choice,|
w: will- ing|heart|All|ta- * * ken|up by|thee?|
w: search- a-|ble:|The|first- * * born|sons of|light|
"^#" E,4 E,2 E,2 | A,4 z2 A,2 |"^6" F,4 F,4 |"^#" E,8 |"^T" C4"^6" B,2 C2 | (A,2 G,2) (F,2 E,2) | %20
w: My on- ly|care, de-|light and|bliss,|My joy, my|heav’n _ on _|
w: I thirst, I|long, and|pant to|prove|The great- ness|of _ re- *|
w: De- sire in|vain its|depth to|see;|They can- not|reach _ the _|
"^6" D,6"^75" D,2 |"^#" E,6"^["!p!"^]" E,2 |"^6" C,4"^#" E,4 | A,6"^6" F,2 | %24
w: earth be|this, To|hear the|Bride- groom’s|
w: deem- ing|love, The|love of|Christ to|
w: mys- te-|ry, The|length, and|breadth, and|
"^#" E,6"^["!f!"^]" E,2 | (C,2"^3" D,2"^6" E,2) C,2 |"^6" D,4"^#" E,4 | A,,8 |] %28
w: voice, to|hear _ _ the|Bride- groom’s|voice.|
w: me, the|love _ _ of|Christ to|me.|
w: height, the|length, _ _ and|breadth, and|height.|

